X: 20482
T: John Kelly's
R: reel
M: 4/4
K: Eminor
B2ed BcdA|B2AF EFGA|B2ed BcdA|(3BcB AF D2FA:|
Beec d2fd|edBc dBA2|Beec d2fd|edBc ~d3A|
Beec d2fd|edBc dBA2|g2ge ~f3e|dBABe3d||

